dist/svgs/geomicons-open/icons/compose.svg

<svg xmlns="http://www.w3.org/2000/svg" viewBox="0 0 32 32"><path d="M4 4h12v4H8v16h16v-8h4v12H4zm22-2l4 4-14 14h-4v-4z"/></svg>

<svg id="compose" xmlns="http://www.w3.org/2000/svg" viewBox="0 0 32 32" width="32" height="32" fill="currentcolor">
  <path d="M4 4 L16 4 L16 8 L8 8 L8 24 L24 24 L24 16 L28 16 L28 28 L4 28 z M26 2 L30 6 L16 20 L12 20 L12 16 z"></path>
</svg>
